app/component-library/components/Icons/Icon/assets/security-card.svg

<svg width="24" height="24" viewBox="0 0 24 24" fill="none" xmlns="http://www.w3.org/2000/svg">
<path d="M13.7707 13.3799H11.2807C10.9807 13.3799 10.7407 13.6199 10.7407 13.9199C10.7407 14.2199 10.9807 14.4599 11.2807 14.4599H13.7707C14.0707 14.4599 14.3107 14.2199 14.3107 13.9199C14.3107 13.6199 14.0707 13.3799 13.7707 13.3799Z" fill="currentColor"/>
<path d="M9.72115 13.3799H8.47115C8.17115 13.3799 7.93115 13.6199 7.93115 13.9199C7.93115 14.2199 8.17115 14.4599 8.47115 14.4599H9.72115C10.0212 14.4599 10.2612 14.2199 10.2612 13.9199C10.2612 13.6199 10.0212 13.3799 9.72115 13.3799Z" fill="currentColor"/>
<path d="M18.8206 4.21994L13.3206 2.15994C12.7506 1.94994 11.8206 1.94994 11.2506 2.15994L5.75057 4.21994C4.69057 4.61994 3.83057 5.85994 3.83057 6.98994V15.0899C3.83057 15.8999 4.36057 16.9699 5.01057 17.4499L10.5106 21.5599C11.4806 22.2899 13.0706 22.2899 14.0406 21.5599L19.5406 17.4499C20.1906 16.9599 20.7206 15.8999 20.7206 15.0899V6.98994C20.7306 5.85994 19.8706 4.61994 18.8206 4.21994ZM18.4506 13.6499C18.4306 15.7199 17.8606 16.2399 15.7106 16.2399H8.86057C6.67057 16.2399 6.12057 15.6999 6.12057 13.5299V11.1999C6.12057 10.9199 6.34057 10.6999 6.62057 10.6999H17.9506C18.2306 10.6999 18.4506 10.9199 18.4506 11.1999V13.6499ZM18.4506 9.10994C18.4506 9.38994 18.2306 9.60994 17.9506 9.60994H6.62057C6.34057 9.60994 6.12057 9.38994 6.12057 9.10994V8.46994C6.12057 6.50994 6.58057 5.87994 8.29057 5.76994C8.47057 5.76994 8.66057 5.75994 8.86057 5.75994H15.7106C17.9006 5.75994 18.4506 6.29994 18.4506 8.46994V9.10994Z" fill="currentColor"/>
</svg>

<svg xmlns="http://www.w3.org/2000/svg" width="24" height="24" viewBox="0 0 24 24" fill="none"><path fill="currentColor" d="M13.77 13.38h-2.49c-.3 0-.54.24-.54.54 0 .3.24.54.54.54h2.49c.3 0 .54-.24.54-.54 0-.3-.24-.54-.54-.54ZM9.721 13.38h-1.25c-.3 0-.54.24-.54.54 0 .3.24.54.54.54h1.25c.3 0 .54-.24.54-.54 0-.3-.24-.54-.54-.54Z"/><path fill="currentColor" d="m18.82 4.22-5.5-2.06c-.57-.21-1.5-.21-2.07 0l-5.5 2.06c-1.06.4-1.92 1.64-1.92 2.77v8.1c0 .81.53 1.88 1.18 2.36l5.5 4.11c.97.73 2.56.73 3.53 0l5.5-4.11c.65-.49 1.18-1.55 1.18-2.36v-8.1c.01-1.13-.85-2.37-1.9-2.77Zm-.37 9.43c-.02 2.07-.59 2.59-2.74 2.59H8.86c-2.19 0-2.74-.54-2.74-2.71V11.2c0-.28.22-.5.5-.5h11.33c.28 0 .5.22.5.5v2.45Zm0-4.54c0 .28-.22.5-.5.5H6.62c-.28 0-.5-.22-.5-.5v-.64c0-1.96.46-2.59 2.17-2.7.18 0 .37-.01.57-.01h6.85c2.19 0 2.74.54 2.74 2.71v.64Z"/></svg>
